src/assets/mail.svg

<?xml version="1.0" encoding="UTF-8"?>
<svg xmlns="http://www.w3.org/2000/svg" xmlns:xlink="http://www.w3.org/1999/xlink" viewBox="0 0 48 48" version="1.1" width="48px" height="48px">
<g id="surface1">
<path style=" fill:#E0E0E0;" d="M 5.5 40.5 L 42.5 40.5 C 44.433594 40.5 46 38.933594 46 37 L 46 11 C 46 9.066406 44.433594 7.5 42.5 7.5 L 5.5 7.5 C 3.566406 7.5 2 9.066406 2 11 L 2 37 C 2 38.933594 3.566406 40.5 5.5 40.5 Z "/>
<path style=" fill:#D9D9D9;" d="M 26 40.5 L 42.5 40.5 C 44.433594 40.5 46 38.933594 46 37 L 46 11 C 46 9.066406 44.433594 7.5 42.5 7.5 L 5.5 7.5 C 3.566406 7.5 2 9.066406 2 11 Z "/>
<path style=" fill:#EEEEEE;" d="M 6.746094 40.5 L 42.5 40.5 C 44.433594 40.5 46 38.933594 46 37 L 46 11.5 Z "/>
<path style=" fill:#E0E0E0;" d="M 25.746094 40.5 L 42.5 40.5 C 44.433594 40.5 46 38.933594 46 37 L 46 11.5 L 18.769531 31.617188 Z "/>
<path style=" fill:#CA3737;" d="M 42.5 9.5 L 5.5 9.5 C 3.566406 9.5 2 9.066406 2 11 L 2 37 C 2 38.933594 3.566406 40.5 5.5 40.5 L 7 40.5 L 7 12 L 41 12 L 41 40.5 L 42.5 40.5 C 44.433594 40.5 46 38.933594 46 37 L 46 11 C 46 9.066406 44.433594 9.5 42.5 9.5 Z "/>
<path style=" fill:#F5F5F5;" d="M 42.5 7.5 L 5.5 7.5 C 3.566406 7.5 2 9.035156 2 11 C 2 12.207031 3.519531 13.257813 3.519531 13.257813 L 24 27.757813 L 44.480469 13.257813 C 44.480469 13.257813 46 12.207031 46 11 C 46 9.035156 44.433594 7.5 42.5 7.5 Z "/>
<path style=" fill:#E84F4B;" d="M 43.246094 7.582031 L 24 21 L 4.753906 7.582031 C 3.179688 7.917969 2 9.296875 2 11 C 2 12.207031 3.519531 13.257813 3.519531 13.257813 L 24 27.757813 L 44.480469 13.257813 C 44.480469 13.257813 46 12.207031 46 11 C 46 9.296875 44.820313 7.917969 43.246094 7.582031 Z "/>
</g>
</svg>

<svg xmlns="http://www.w3.org/2000/svg" width="48" height="48"><path d="M5.5 40.5h37c2 0 3.5-1.6 3.5-3.5V11c0-2-1.6-3.5-3.5-3.5h-37C3.5 7.5 2 9.1 2 11v26c0 2 1.6 3.5 3.5 3.5z" fill="#e0e0e0"/><path d="M26 40.5h16.5c2 0 3.5-1.6 3.5-3.5V11c0-2-1.6-3.5-3.5-3.5h-37C3.5 7.5 2 9.1 2 11z" fill="#d9d9d9"/><path d="M6.7 40.5h35.8c2 0 3.5-1.6 3.5-3.5V11.5z" fill="#eee"/><path d="M25.7 40.5h16.8c2 0 3.5-1.6 3.5-3.5V11.5L18.8 31.6z" fill="#e0e0e0"/><path d="M42.5 9.5h-37C3.5 9.5 2 9.1 2 11v26c0 2 1.6 3.5 3.5 3.5H7V12h34v28.5h1.5c2 0 3.5-1.6 3.5-3.5V11c0-2-1.6-1.5-3.5-1.5z" fill="#ca3737"/><path d="M42.5 7.5h-37C3.5 7.5 2 9 2 11c0 1.2 1.5 2.3 1.5 2.3L24 27.8l20.5-14.5s1.5-1 1.5-2.3c0-2-1.6-3.5-3.5-3.5z" fill="#f5f5f5"/><path d="M43.2 7.6L24 21 4.8 7.6A3.5 3.5 0 0 0 2 11c0 1.2 1.5 2.3 1.5 2.3L24 27.8l20.5-14.5s1.5-1 1.5-2.3c0-1.7-1.2-3-2.8-3.4z" fill="#e84f4b"/></svg>
